X:2043
T:For Sake of Old Decency
O:england
M:C|
R:Reel
S:Rory
K:G
d2 BG AGEG|DGBG A2AB|d2BG AGEG|DGBG EGG2::\
G2GB d2Bd|eaag efg2|G2GB d2Bd|efga bag2:|


